X: 1710
T: Bonaparte's Defeat
R:hornpipe, reel
%S:s:3 b:14(4+5+5)
B: O'Neill's 1850 #1710
N: collected by Carey
R: hornpipe
Z: Bob Safranek, rjs@gsp.org
Z: A. LEE WORMAN
Z: Compacted via repeats and multiple endings [JC]
M: C|
L: 1/8
K: A
A>G \
|: E>AA>G A>cB>A | G>AB>c d2e>f | {a}g>fg>e [1,3 d>BB>d | c>AB>G (TG>E)E>D :|
|[1,2 e>dB>G | A2A>A A2 :: e>f | {a}g>fg>e a>ga>e | g>fg>e d>BB>d | c2c>B A2G>A |
| B>cB>A (TG>E)E>D || E>AA>G A>cB>A | G>AB>c d2e>f | {a}g>fg>e e>dB>G | A2A>A A2 :|
